;MachineType:ENTINA TINA2S
;FilamentType:PLA
;Extruder0Temperature:200
;BedTemperature:50
;InfillDensity:10
;MINX:27.0
;MAXX:72.0
;MINY:15.4
;MAXY:116.0
;MINZ:0.0
;MAXZ:6.3
;FLAVOR:Marlin
;TIME:2215
;FilamentUsed:2795.7
;Layer height: 0.2

;Generated with Cura_SteamEngine 4.10
M82 ;absolute extrusion mode
;(**** start.gcode for tina2s****)
M203 Z15
M104 S150
M140 S50
G28 Z
G28 X Y; Home extruder
G1 X55 Y55 F1000
G29
M107 ; Turn off fan
G90 ; Absolute positioning
M82 ; Extruder in absolute mode
M109 S215
M190 S50
G92 E0 ; Reset extruder position
G1 X90 Y3 Z0.27 F2000
G1 X20 Y3 Z0.27 E15 F1000
G92 E0 ; Reset extruder position
M203 Z5

M140 S50
M104 S215
G92 E0
G92 E0
G1 F1680 E-3
;LAYER_COUNT:25
;LAYER:-6
M107
G0 F8262 X32.995 Y21.779 Z0.35
;TYPE:SUPPORT-INTERFACE
G1 F1680 E0
G1 F1200 X33.243 Y21.408 E0.05195
G1 X33.559 Y20.96 E0.11577
G1 X33.902 Y20.506 E0.18201
G1 X34.346 Y19.984 E0.26178
G1 X34.948 Y19.348 E0.36373
G1 X35.315 Y19.008 E0.42196
G1 X35.954 Y18.479 E0.51853
G1 X36.64 Y17.978 E0.61742
G1 X37.146 Y17.665 E0.68668
G1 X37.605 Y17.413 E0.74764
G1 X38.396 Y17.028 E0.85005
G1 X39.021 Y16.777 E0.92845
G1 X39.906 Y16.49 E1.03676
G1 X40.421 Y16.346 E1.09901
G1 X40.93 Y16.235 E1.15965
G1 X41.601 Y16.12 E1.2389
G1 X42.116 Y16.049 E1.29942
G1 X42.616 Y16.005 E1.35785
G1 X43.486 Y15.966 E1.45923
G1 X44.311 Y15.983 E1.55529
G1 X44.899 Y16.022 E1.62389
G1 X45.807 Y16.139 E1.73046
G1 X46.324 Y16.229 E1.79155
G1 X46.988 Y16.322 E1.8696
G1 X47.675 Y16.329 E1.94958
G1 X48.582 Y16.204 E2.05616
G1 X49.088 Y16.089 E2.11657
G1 X49.744 Y15.978 E2.19402
G1 X50.293 Y15.912 E2.25839
G1 X50.614 Y15.886 E2.29588
G1 X51.624 Y15.824 E2.41368
G1 X52.322 Y15.812 E2.49494
G1 X52.931 Y15.833 E2.56588
G1 X53.501 Y15.883 E2.63249
G1 X54.11 Y15.97 E2.7041
G1 X54.853 Y16.12 E2.79234
G1 X54.988 Y16.154 E2.80855
G1 X55.648 Y16.277 E2.8867
G1 X56.31 Y16.315 E2.96389
G1 X56.956 Y16.325 E3.0391
G1 X57.815 Y16.387 E3.13936
G1 X58.372 Y16.453 E3.20465
G1 X58.914 Y16.539 E3.26854
G1 X59.447 Y16.647 E3.33184
G1 X60.129 Y16.826 E3.41392
G1 X60.931 Y17.089 E3.51218
G1 X61.409 Y17.285 E3.57232
G1 X61.92 Y17.529 E3.63824
G1 X62.658 Y17.929 E3.73596
G1 X62.806 Y18.018 E3.75606
G1 X63.296 Y18.341 E3.82438
G1 X63.907 Y18.808 E3.9139
G1 X64.313 Y19.159 E3.97638
G1 X64.731 Y19.563 E4.04405
G1 X65.158 Y20.027 E4.11746
G1 X65.569 Y20.54 E4.19398
G1 X66.043 Y21.223 E4.29076
G1 X66.366 Y21.766 E4.36431
G1 X66.618 Y22.262 E4.42907
G1 X66.824 Y22.727 E4.48827
G1 X67.066 Y23.338 E4.56478
G1 X67.236 Y23.862 E4.62891
G1 X67.369 Y24.355 E4.68835
G1 X67.477 Y24.876 E4.75029
G1 X67.599 Y25.705 E4.84783
G1 X67.678 Y26.574 E4.94941
G1 X67.738 Y26.86 E4.98343
G1 X67.913 Y27.515 E5.06235
G1 X68.347 Y28.573 E5.19547
G1 X68.469 Y28.879 E5.23382
G1 X68.818 Y29.669 E5.33436
G1 X69.093 Y30.126 E5.39645
G1 X69.394 Y30.625 E5.46429
G1 X69.688 Y31.134 E5.53271
G1 X70.067 Y31.857 E5.62774
G1 X70.293 Y32.332 E5.68898
G1 X70.54 Y32.888 E5.7598
G1 X70.747 Y33.399 E5.82398
G1 X70.945 Y33.96 E5.89324
G1 X71.104 Y34.468 E5.9552
G1 X71.248 Y35.039 E6.02375
G1 X71.415 Y35.874 E6.12288
G1 X71.493 Y36.46 E6.1917
G1 X71.549 Y37.051 E6.2608
G1 X71.581 Y37.58 E6.3225
G1 X71.593 Y38.113 E6.38456
G1 X71.599 Y38.739 E6.45744
G1 X71.582 Y40.098 E6.61565
G1 X71.561 Y40.599 E6.67402
G1 X71.516 Y41.244 E6.74929
G1 X71.447 Y41.857 E6.8211
G1 X71.298 Y42.756 E6.92718
G1 X71.175 Y43.296 E6.99165
G1 X71.02 Y43.875 E7.06143
G1 X70.875 Y44.329 E7.11691
G1 X70.701 Y44.977 E7.19502
G1 X70.607 Y45.693 E7.27908
G1 X70.545 Y46.528 E7.37655
G1 X70.479 Y47.112 E7.44497
G1 X70.381 Y47.767 E7.52207
G1 X70.284 Y48.3 E7.58513
G1 X70.164 Y48.798 E7.64476
G1 X70.031 Y49.281 E7.70308
G1 X69.855 Y49.843 E7.77164
G1 X69.815 Y49.952 E7.78515
G1 X69.632 Y50.419 E7.84354
G1 X69.421 Y50.901 E7.90479
G1 X69.185 Y51.528 E7.98278
G1 X69.027 Y52.192 E8.06224
G1 X68.954 Y52.871 E8.14173
G1 X68.967 Y53.554 E8.22126
G1 X69.067 Y54.234 E8.30127
G1 X69.219 Y54.729 E8.36155
G1 X69.194 Y54.741 E8.36477
G1 X69.443 Y55.408 E8.44765
G1 X69.607 Y55.917 E8.50991
G1 X69.759 Y56.46 E8.57555
G1 X69.875 Y57.002 E8.64007
G1 X69.993 Y57.72 E8.72478
G1 X70.058 Y58.362 E8.79989
G1 X70.093 Y58.965 E8.87021
G1 X70.103 Y59.49 E8.93133
G1 X70.091 Y59.851 E8.97338
G1 X70.11 Y60.521 E9.05141
G1 X70.216 Y61.201 E9.13152
G1 X70.32 Y61.529 E9.17158
G1 X70.274 Y61.529 E9.17693
G1 X70.67 Y62.518 E9.30095
G1 X70.873 Y63.088 E9.37139
G1 X71.006 Y63.533 E9.42545
G1 X71.187 Y64.218 E9.50793
G1 X71.365 Y65.064 E9.60857
G1 X71.414 Y65.389 E9.64683
G1 X71.496 Y66.001 E9.71871
G1 X71.55 Y66.536 E9.78131
G1 X71.57 Y66.883 E9.82177
G1 X71.594 Y67.539 E9.89818
G1 X71.591 Y68.281 E9.98456
G1 X71.563 Y68.856 E10.05158
G1 X71.488 Y69.621 E10.14106
G1 X71.402 Y70.227 E10.21231
G1 X71.228 Y71.188 E10.326
G1 X71.102 Y71.75 E10.39305
G1 X70.856 Y72.701 E10.5074
G1 X70.741 Y73.096 E10.55529
G1 X70.454 Y73.991 E10.6647
G1 X70.255 Y74.547 E10.73345
G1 X69.928 Y75.391 E10.83881
G1 X69.739 Y75.839 E10.89542
G1 X69.374 Y76.644 E10.99831
G1 X69.13 Y77.133 E11.06193
G1 X68.686 Y77.954 E11.17058
G1 X68.31 Y78.581 E11.25569
G1 X67.878 Y79.233 E11.34674
G1 X67.53 Y79.714 E11.41585
G1 X67.151 Y80.266 E11.49379
G1 X66.838 Y80.872 E11.57319
G1 X66.604 Y81.514 E11.65274
G1 X66.453 Y82.18 E11.73224
G1 X66.387 Y82.86 E11.81177
G1 X66.408 Y83.542 E11.8912
G1 X66.514 Y84.217 E11.97074
G1 X66.714 Y84.895 E12.05302
G1 X66.914 Y85.455 E12.12225
G1 X67.177 Y86.266 E12.2215
G1 X67.277 Y86.597 E12.26175
G1 X67.461 Y87.241 E12.33972
G1 X67.539 Y87.533 E12.3749
G1 X67.748 Y88.388 E12.47736
G1 X67.81 Y88.66 E12.50984
G1 X67.979 Y89.473 E12.6065
G1 X68.032 Y89.758 E12.64025
G1 X68.154 Y90.455 E12.72262
G1 X68.193 Y90.702 E12.75173
G1 X68.298 Y91.443 E12.83885
G1 X68.331 Y91.692 E12.86809
G1 X68.417 Y92.46 E12.95805
G1 X68.439 Y92.694 E12.98541
G1 X68.504 Y93.475 E13.07664
G1 X68.522 Y93.734 E13.10687
G1 X68.569 Y94.674 E13.21643
G1 X68.577 Y94.895 E13.24217
G1 X68.6 Y95.981 E13.36862
G1 X68.597 Y96.927 E13.47875
G1 X68.59 Y97.266 E13.51822
G1 X68.552 Y98.423 E13.65298
G1 X68.506 Y99.187 E13.74208
G1 X68.465 Y99.792 E13.81267
G1 X68.399 Y100.525 E13.89834
G1 X68.348 Y101.038 E13.95835
G1 X68.315 Y101.32 E13.99141
G1 X68.189 Y102.246 E14.1002
G1 X68.109 Y102.729 E14.15719
G1 X67.976 Y103.411 E14.23808
G1 X67.815 Y104.084 E14.31863
G1 X67.653 Y104.643 E14.38638
G1 X67.395 Y105.405 E14.48003
G1 X67.188 Y105.906 E14.54314
G1 X67.092 Y106.117 E14.57012
G1 X66.864 Y106.575 E14.62968
G1 X66.416 Y107.337 E14.73258
G1 X66.097 Y107.797 E14.79774
G1 X65.666 Y108.349 E14.87927
G1 X65.277 Y108.788 E14.94755
G1 X64.786 Y109.272 E15.02781
G1 X64.276 Y109.708 E15.10592
G1 X63.842 Y110.035 E15.16917
G1 X63.39 Y110.336 E15.23239
G1 X62.817 Y110.667 E15.30942
G1 X62.296 Y110.927 E15.37721
G1 X61.746 Y111.161 E15.44679
G1 X61.209 Y111.353 E15.51317
G1 X60.649 Y111.516 E15.58107
G1 X60.508 Y111.552 E15.59801
G1 X59.925 Y111.675 E15.66737
G1 X59.373 Y111.757 E15.73233
G1 X58.861 Y111.804 E15.79219
G1 X58.31 Y111.822 E15.85636
G1 X57.643 Y111.881 E15.93431
G1 X56.975 Y112.027 E16.01391
G1 X56.332 Y112.256 E16.09337
G1 X55.718 Y112.566 E16.17344
G1 X54.945 Y113.119 E16.28408
G1 X54.465 Y113.523 E16.35711
G1 X54.023 Y113.853 E16.42133
G1 X53.601 Y114.133 E16.48028
G1 X53.157 Y114.395 E16.54029
G1 X52.994 Y114.482 E16.5618
G1 X52.529 Y114.712 E16.62219
G1 X52.039 Y114.921 E16.68421
G1 X51.494 Y115.117 E16.75163
G1 X50.882 Y115.297 E16.82589
G1 X50.284 Y115.429 E16.89718
G1 X49.695 Y115.521 E16.96658
G1 X49.07 Y115.579 E17.03965
G1 X48.141 Y115.595 E17.14781
G1 X48.002 Y115.59 E17.164
G1 X47.487 Y115.551 E17.22412
G1 X46.933 Y115.478 E17.28917
G1 X46.357 Y115.369 E17.35741
G1 X45.733 Y115.206 E17.43249
G1 X45.133 Y115.008 E17.50604
G1 X44.657 Y114.817 E17.56575
G1 X43.984 Y114.502 E17.65225
G1 X43.438 Y114.197 E17.72505
G1 X42.981 Y113.906 E17.78812
G1 X42.511 Y113.569 E17.85545
G1 X42.05 Y113.205 E17.92382
G1 X41.551 Y112.763 E18.00142
G1 X41.178 Y112.405 E18.06161
G1 X41.063 Y112.29 E18.08054
G1 X40.402 Y111.604 E18.19144
G1 X40.057 Y111.228 E18.25084
G1 X39.581 Y110.756 E18.32888
G1 X39.039 Y110.341 E18.40834
G1 X38.45 Y109.998 E18.48769
G1 X37.822 Y109.731 E18.56713
G1 X37.127 Y109.536 E18.65115
G1 X36.572 Y109.371 E18.71856
G1 X36.092 Y109.204 E18.77772
G1 X35.31 Y108.89 E18.87582
G1 X34.797 Y108.644 E18.94205
G1 X34.04 Y108.213 E19.04345
G1 X33.325 Y107.75 E19.14261
G1 X33.237 Y107.686 E19.15528
G1 X32.771 Y107.324 E19.22397
G1 X32.368 Y106.985 E19.28528
G1 X31.967 Y106.625 E19.34801
G1 X31.582 Y106.236 E19.41172
G1 X31.117 Y105.716 E19.49293
G1 X30.765 Y105.294 E19.5569
G1 X30.41 Y104.807 E19.62705
G1 X29.999 Y104.189 E19.71345
G1 X29.704 Y103.685 E19.78143
G1 X29.353 Y103.001 E19.87093
G1 X29.143 Y102.542 E19.92969
G1 X28.842 Y101.776 E20.0255
G1 X28.666 Y101.246 E20.09051
G1 X28.469 Y100.516 E20.17853
G1 X28.353 Y99.998 E20.24032
G1 X28.241 Y99.375 E20.31401
G1 X28.175 Y98.932 E20.36615
G1 X28.101 Y98.33 E20.43675
G1 X28.054 Y97.836 E20.49452
G1 X28.005 Y97.209 E20.56773
G1 X27.98 Y96.722 E20.6245
G1 X27.955 Y95.982 E20.71069
G1 X27.937 Y95.285 E20.79186
G1 X27.94 Y94.402 E20.89465
G1 X27.944 Y94.195 E20.91875
G1 X27.972 Y93.382 E21.01345
G1 X27.989 Y93.06 E21.05098
G1 X28.043 Y92.271 E21.14305
G1 X28.116 Y91.541 E21.22845
G1 X28.162 Y91.173 E21.27162
G1 X28.244 Y90.625 E21.33613
G1 X28.361 Y89.989 E21.4114
G1 X28.537 Y89.242 E21.50074
G1 X28.781 Y88.429 E21.59956
G1 X28.955 Y87.933 E21.66075
G1 X29.19 Y87.347 E21.73424
G1 X29.398 Y86.882 E21.79354
G1 X29.536 Y86.604 E21.82967
G1 X29.84 Y86.02 E21.90632
G1 X30.286 Y85.262 E22.0087
G1 X30.659 Y84.7 E22.08722
G1 X31.152 Y84.021 E22.1849
G1 X31.608 Y83.458 E22.26924
G1 X32.033 Y82.954 E22.34598
G1 X32.36 Y82.417 E22.41917
G1 X32.617 Y81.952 E22.48102
G1 X33.019 Y81.168 E22.58359
G1 X33.36 Y80.554 E22.66535
G1 X33.663 Y79.956 E22.74339
G1 X33.89 Y79.312 E22.82287
G1 X34.034 Y78.645 E22.90231
G1 X34.094 Y77.964 E22.98189
G1 X34.066 Y77.282 E23.06135
G1 X33.953 Y76.609 E23.14079
G1 X33.756 Y75.955 E23.2203
G1 X33.478 Y75.331 E23.29983
G1 X33.124 Y74.748 E23.37922
G1 X32.733 Y74.254 E23.45256
G1 X32.229 Y73.682 E23.54131
G1 X31.882 Y73.26 E23.60491
G1 X31.73 Y73.06 E23.63416
G1 X31.31 Y72.489 E23.71667
G1 X31 Y72.038 E23.78038
G1 X30.777 Y71.683 E23.82918
G1 X30.354 Y70.968 E23.92589
G1 X30.102 Y70.505 E23.98725
G1 X29.981 Y70.259 E24.01917
G1 X29.725 Y69.723 E24.08831
G1 X29.51 Y69.231 E24.15082
G1 X29.477 Y69.152 E24.16079
G1 X29.245 Y68.562 E24.23459
G1 X28.987 Y67.823 E24.32571
G1 X28.804 Y67.212 E24.39995
G1 X28.653 Y66.645 E24.46826
G1 X28.61 Y66.457 E24.49071
G1 X28.465 Y65.788 E24.5704
G1 X28.378 Y65.31 E24.62696
G1 X28.301 Y64.806 E24.68631
G1 X28.237 Y64.282 E24.74776
G1 X28.223 Y64.141 E24.76425
G1 X28.111 Y63.484 E24.84184
G1 X27.949 Y62.914 E24.91082
G1 X27.867 Y62.615 E24.94691
G1 X27.726 Y62.059 E25.01369
G1 X27.611 Y61.523 E25.0775
G1 X27.531 Y60.992 E25.14001
G1 X27.464 Y60.433 E25.20555
G1 X27.427 Y60.021 E25.25371
G1 X27.403 Y59.471 E25.31779
G1 X27.402 Y58.953 E25.37809
G1 X27.429 Y58.353 E25.44801
G1 X27.51 Y57.544 E25.54266
G1 X27.631 Y56.812 E25.62903
G1 X27.752 Y56.241 E25.69697
G1 X27.9 Y55.683 E25.76418
G1 X28.048 Y55.199 E25.82309
G1 X28.24 Y54.677 E25.88784
G1 X28.49 Y54.068 E25.96448
G1 X28.715 Y53.568 E26.0283
G1 X29.038 Y52.945 E26.10999
G1 X29.3 Y52.328 E26.18803
G1 X29.485 Y51.67 E26.26759
G1 X29.584 Y50.995 E26.34701
G1 X29.599 Y50.312 E26.42654
G1 X29.527 Y49.632 E26.50614
G1 X29.368 Y48.963 E26.58619
G1 X29.006 Y48.071 E26.69825
G1 X28.776 Y47.619 E26.75729
G1 X28.461 Y46.912 E26.84739
G1 X28.199 Y46.207 E26.93495
G1 X27.964 Y45.453 E27.02688
G1 X27.822 Y44.907 E27.09256
G1 X27.799 Y44.809 E27.10428
G1 X27.691 Y44.284 E27.16667
G1 X27.586 Y43.66 E27.24033
G1 X27.512 Y43.083 E27.30805
G1 X27.455 Y42.453 E27.38169
G1 X27.419 Y41.826 E27.4548
G1 X27.402 Y41.153 E27.53317
G1 X27.402 Y40.776 E27.57706
G1 X27.417 Y40.165 E27.6482
G1 X27.45 Y39.564 E27.71827
G1 X27.508 Y38.942 E27.79099
G1 X27.597 Y38.266 E27.87037
G1 X27.694 Y37.685 E27.93894
G1 X27.812 Y37.101 E28.00829
G1 X27.977 Y36.422 E28.08964
G1 X28.14 Y35.841 E28.15988
G1 X28.363 Y35.157 E28.24363
G1 X28.6 Y34.512 E28.32363
G1 X28.844 Y33.915 E28.3987
G1 X29.069 Y33.283 E28.4768
G1 X29.226 Y32.536 E28.56566
G1 X29.345 Y31.73 E28.6605
G1 X29.449 Y31.171 E28.72669
G1 X29.587 Y30.532 E28.80279
G1 X29.768 Y29.805 E28.89001
G1 X29.915 Y29.295 E28.95179
G1 X30.053 Y28.861 E29.00481
G1 X30.261 Y28.27 E29.07774
G1 X30.466 Y27.744 E29.14346
G1 X30.665 Y27.279 E29.20234
G1 X30.8 Y26.978 E29.24074
G1 X31.084 Y26.197 E29.33748
G1 X31.236 Y25.659 E29.40256
G1 X31.449 Y25.008 E29.4823
G1 X31.661 Y24.435 E29.55342
G1 X31.744 Y24.234 E29.57874
G1 X32.013 Y23.607 E29.65816
G1 X32.226 Y23.154 E29.71643
G1 X32.382 Y22.853 E29.7559
G1 X32.728 Y22.225 E29.83937
G1 X32.995 Y21.779 E29.89988
G1 F1680 E26.89988
G0 F8262 X33.6 Y20.905
G1 F1680 E29.89988
G1 F1200 X33.6 Y75.604 E36.26741
G1 F1680 E33.26741
G0 F8262 X32 Y73.403
G1 F1680 E36.26741
G1 F1200 X32 Y23.637 E42.0607
G1 F1680 E39.0607
G0 F8262 X30.4 Y27.913
G1 F1680 E42.0607
G1 F1200 X30.4 Y71.045 E47.08171
G1 F1680 E44.08171
G0 F8262 X28.8 Y67.196
G1 F1680 E47.08171
G1 F1200 X28.8 Y53.404 E48.68725
G1 F1680 E45.68725
G0 F8262 X28.8 Y47.666
G1 F1680 E48.68725
G1 F1200 X28.8 Y34.022 E50.27555
G1 F1680 E47.27555
G0 F8262 X35.2 Y19.114
G1 F1680 E50.27555
G1 F1200 X35.2 Y108.837 E60.72025
G1 F1680 E57.72025
G0 F8262 X36.8 Y109.438
G1 F1680 E60.72025
G1 F1200 X36.8 Y17.879 E71.37867
G1 F1680 E68.37867
G0 F8262 X38.4 Y17.026
G1 F1680 E71.37867
G1 F1200 X38.4 Y109.976 E82.19903
G1 F1680 E79.19903
G0 F8262 X40 Y111.171
G1 F1680 E82.19903
G1 F1200 X40 Y16.463 E93.22403
G1 F1680 E90.22403
G0 F8262 X41.6 Y16.12
G1 F1680 E93.22403
G1 F1200 X41.6 Y112.806 E104.47929
G1 F1680 E101.47929
G0 F8262 X43.2 Y114.045
G1 F1680 E104.47929
G1 F1200 X43.2 Y15.978 E115.89532
G1 F1680 E112.89532
G0 F8262 X44.8 Y16.016
G1 F1680 E115.89532
G1 F1200 X44.8 Y114.874 E127.40343
G1 F1680 E124.40343
G0 F8262 X46.4 Y115.377
G1 F1680 E127.40343
G1 F1200 X46.4 Y16.24 E138.94401
G1 F1680 E135.94401
G0 F8262 X48 Y16.284
G1 F1680 E138.94401
G1 F1200 X48 Y115.589 E150.50415
G1 F1680 E147.50415
G0 F8262 X49.6 Y115.53
G1 F1680 E150.50415
G1 F1200 X49.6 Y16.002 E162.09025
G1 F1680 E159.09025
G0 F8262 X51.2 Y15.85
G1 F1680 E162.09025
G1 F1200 X51.2 Y115.204 E173.6561
G1 F1680 E170.6561
G0 F8262 X52.8 Y114.578
G1 F1680 E173.6561
G1 F1200 X52.8 Y15.829 E185.15152
G1 F1680 E182.15152
G0 F8262 X54.4 Y16.029
G1 F1680 E185.15152
G1 F1200 X54.4 Y113.572 E196.50655
G1 F1680 E193.50655
G0 F8262 X56 Y112.424
G1 F1680 E196.50655
G1 F1200 X56 Y16.298 E207.69662
G1 F1680 E204.69662
G0 F8262 X57.6 Y16.372
G1 F1680 E207.69662
G1 F1200 X57.6 Y111.891 E218.81603
G1 F1680 E215.81603
G0 F8262 X59.2 Y111.773
G1 F1680 E218.81603
G1 F1200 X59.2 Y16.597 E229.89551
G1 F1680 E226.89551
G0 F8262 X60.8 Y17.047
G1 F1680 E229.89551
G1 F1200 X60.8 Y111.473 E240.88769
G1 F1680 E237.88769
G0 F8262 X62.4 Y110.876
G1 F1680 E240.88769
G1 F1200 X62.4 Y17.79 E251.72387
G1 F1680 E248.72387
G0 F8262 X64 Y18.889
G1 F1680 E251.72387
G1 F1200 X64 Y109.916 E262.32037
G1 F1680 E259.32037
G0 F8262 X65.6 Y108.424
G1 F1680 E262.32037
G1 F1200 X65.6 Y20.585 E272.54575
G1 F1680 E269.54575
G0 F8262 X67.2 Y23.752
G1 F1680 E272.54575
G1 F1200 X67.2 Y80.195 E279.11631
G1 F1680 E276.11631
G0 F8262 X68.8 Y77.744
G1 F1680 E279.11631
G1 F1200 X68.8 Y29.629 E284.7174
G1 F1680 E281.7174
G0 F8262 X70.4 Y32.573
G1 F1680 E284.7174
G1 F1200 X70.4 Y47.641 E286.47147
